resources/svg/form-view-hide.svg

<svg viewBox="0 0 24 24"><path fill="none" stroke="currentColor" stroke-width="2" d="M3 12h3c.5 2.5 3.273 5 6 5s5.5-2.5 6-5h3m-9 5v3m-4.5-4.5l-2 2m11-2l2 2"/></svg>

<svg xmlns="http://www.w3.org/2000/svg" viewBox="0 0 24 24" fill="currentColor"><path fill="none" stroke="currentColor" stroke-width="2" d="M3,12 L6,12 C6.5,14.5 9.27272727,17 12,17 C14.7272727,17 17.5,14.5 18,12 L21,12 M12,17 L12,20 M7.5,15.5 L5.5,17.5 M16.5,15.5 L18.5,17.5"/></svg>
